X: 9002
T: D. D. Cronin's Favourite
R: polka
M: 2/4
K: Dmajor
|:c/B/|Ad fa|gf e2|A>B c>e|ed cB|
Ad fa|gf e2|A>B c>e|ed d:|
|:e/f/|gf ed|cB AA/B/|c>B BA/B/|c>B BA|
gf ed|cB AA/B/|cd/c/ Bc|ed d:|

